X:1
T:Title
%%score 1 2
L:1/8
Q:1/4=100
M:3/4
K:Bb
V:1 treble nm="Synth Voice, Staff"
V:2 bass nm="Grand Piano, Staff-1"
V:1
 [B,D][CE] [DF]2 [DF]2 | [Fd]>[Ec] [DB]2 [DB]2 | [EA][EG] [EF]3 [A,C] | [CF][CE] [B,D]4 | %4
w: By~Traditional~Melody * * *||||
 [CD]>[CD] [B,B]3 [DB] | [Cc][CB] [CB]2 [CA]2 | [C=E][CF] [DA]2 [DG]2 | [B,D][C=E] [CF]4 | %8
w: ||||
 [CF]>[CF] [CE]3 [EF] | [EG][EA] [DG]2 [DF]2 | [EA][EB] [Ec]3 [EA] | [EG][EF] [DB]4 | %12
w: ||||
 [B,D][CE] [DF]3 [DG] | [FA][FB] [EA]2 [EG]2 | [_DA][DB] [=Dd]3 [Ec] | [EG][EA] [DB]4 |] %16
w: ||||
V:2
 [B,,B,][B,,B,] [B,,B,]2 [B,,B,]2 | [F,A,]>[F,A,] [B,,B,]2 [B,,B,]2 | %2
 [E,B,][E,B,] [F,A,]3 [F,,F,] | [G,,F,][A,,F,] [B,,F,]4 | [D,^F,]>[D,F,] G,3 [=F,G,] | %5
 [=E,G,][E,G,] F,2 F,2 | [A,,F,][A,,F,] [B,,F,]2 [B,,G,]2 | [C,G,][C,B,] [F,A,]4 | %8
 [F,A,]>[F,A,] [F,A,]3 [F,A,] | [F,B,][F,C] [B,,B,]2 [B,,B,]2 | [F,C][F,B,] [F,A,]3 [F,C] | %11
 [F,B,][F,A,] [B,,B,]4 | [B,,B,][B,,B,] [B,,B,]3 [B,,B,] | [D,B,][D,B,] [E,B,]2 [E,B,]2 | %14
 [=E,A,][E,G,] [F,B,]3 [F,A,] | [F,B,][F,C] [B,,B,]4 |] %16

